X:1
T:Bedmaking (The Gay Old Man)
M:4/4
L:1/8
K:G
 z A| A2 dd d2 d2| c2 A2 A3 B| c2 cc c2 AA|B-AG-F E2| z A| A2 FE D2 z d|\
 d2 AF E2 z F| G2G-E ^C2 EG| F2 D2 D2||
